Resources/Public/Icons/colorsets/colorset-01.svg

<?xml version="1.0" encoding="utf-8"?>
<!-- Generator: Adobe Illustrator 27.7.0, SVG Export Plug-In . SVG Version: 6.00 Build 0)  -->
<svg version="1.1" id="Layer_1" xmlns="http://www.w3.org/2000/svg" xmlns:xlink="http://www.w3.org/1999/xlink" x="0px" y="0px"
	 viewBox="0 0 900 900" style="enable-background:new 0 0 900 900;" xml:space="preserve">
<style type="text/css">
	.st0{fill:#B8D7DE;}
	.st1{fill:#D93E26;}
	.st2{fill:#E2E0DF;}
	.st3{fill:#3D3D3E;}
	.st4{fill:#666667;}
	.st5{fill:#911D20;}
	.st6{fill:#FFFFFF;}
	.st7{fill:#921D20;}
</style>
<g>
	<path class="st0" d="M0,298C0,198.7,0,99.3,0,0c300,0,600,0,900,0c0,99.3,0,198.7,0,298C600,298,300,298,0,298z"/>
	<path class="st1" d="M900,303c0,99,0,198,0,297c-149.2,0-298.5,0-447.7,0c0-99.3,0-198,0-297C601.7,303,750.9,303,900,303z"/>
	<path class="st2" d="M0,600c0-99,0-198,0-297c146.7,0,293.3,0,440,0c7,0,7,0,7,7c0,94.3,0,188.7,0,283c0,7,0,7-7,7
		C293.3,600,146.7,600,0,600z"/>
	<path class="st3" d="M296,900c-98.7,0-197.3,0-296,0c0-98.3,0-196.7,0-295c98.6,0,197.2,0,296,0C296,703.7,296,801.9,296,900z"/>
	<path class="st4" d="M900,605c0,98.3,0,196.7,0,295c-98.7,0-197.3,0-296,0c0-98.2,0-196.5,0-295C703.1,605,801.5,605,900,605z"/>
	<path class="st5" d="M599,900c-97.7,0-195.3,0-293,0c0-22.9,0-45.7-0.1-68.6c0-1.8-1.2-3.6-1.9-5.4c0-73.6,0-147.2,0-220.8
		c1-0.1,2-0.2,3-0.2c96.2,0,192.3,0,288.5,0c1.1,0,2.2,0.2,3.5,0.3C599,703.7,599,801.9,599,900z"/>
	<path class="st6" d="M599,900c0-98.1,0-196.3,0-294.7c-1.3-0.1-2.4-0.3-3.5-0.3c-96.2,0-192.3,0-288.5,0c-1,0-2,0.1-3,0.2
		c-3.8,0.3-1.9,3.2-1.9,4.8c-0.1,96.7-0.1,193.4-0.1,290c-2,0-4,0-6,0c0-98.1,0-196.3,0-295c-98.8,0-197.4,0-296,0c0-1.7,0-3.3,0-5
		c146.7,0,293.3,0,440,0c7,0,7,0,7-7c0-94.3,0-188.7,0-283c0-7,0-7-7-7c-146.7,0-293.3,0-440,0c0-1.7,0-3.3,0-5c300,0,600,0,900,0
		c0,1.7,0,3.3,0,5c-149.1,0-298.3,0-447.7,0c0,99,0,197.7,0,297c149.2,0,298.4,0,447.7,0c0,1.7,0,3.3,0,5c-98.5,0-196.9,0-296,0
		c0,98.5,0,196.8,0,295C602.3,900,600.7,900,599,900z"/>
	<path class="st7" d="M302,900c0-96.7,0-193.4,0.1-290c0-1.5-1.9-4.5,1.9-4.8c0,73.6,0,147.2,0,220.8c0,24.7,0,49.3,0,74
		C303.3,900,302.7,900,302,900z"/>
	<path class="st5" d="M304,900c0-24.7,0-49.3,0-74c0.7,1.8,1.9,3.6,1.9,5.4c0.1,22.9,0.1,45.7,0.1,68.6C305.3,900,304.7,900,304,900
		z"/>
</g>
</svg>

<svg xmlns="http://www.w3.org/2000/svg" xml:space="preserve" id="Layer_1" x="0" y="0" version="1.1" viewBox="0 0 900 900">
	<path fill="#b8d7de" d="M0 298V0h900v298H0z" />
	<path fill="#d93e26" d="M900 303v297H452.3V303H900z" />
	<path fill="#e2e0df" d="M0 600V303h440c7 0 7 0 7 7v283c0 7 0 7-7 7H0z" />
	<path fill="#3d3d3e" d="M296 900H0V605h296v295z" />
	<path fill="#666667" d="M900 605v295H604V605h296z" />
	<path fill="#911d20" d="M599 900H306c0-22.9 0-45.7-.1-68.6 0-1.8-1.2-3.6-1.9-5.4V605.2c1-.1 2-.2 3-.2h288.5c1.1 0 2.2.2 3.5.3V900z" />
	<path fill="#fff" d="M599 900V605.3c-1.3-.1-2.4-.3-3.5-.3H307c-1 0-2 .1-3 .2-3.8.3-1.9 3.2-1.9 4.8-.1 96.7-.1 193.4-.1 290h-6V605H0v-5h440c7 0 7 0 7-7V310c0-7 0-7-7-7H0v-5h900v5H452.3v297H900v5H604v295h-5z" />
	<path fill="#921d20" d="M302 900c0-96.7 0-193.4.1-290 0-1.5-1.9-4.5 1.9-4.8V900h-2z" />
</svg>
